svg/trophy.svg

<svg xmlns="http://www.w3.org/2000/svg" viewBox="0 0 58 64" enable-background="new 0 0 58 64"><style type="text/css">.st0{fill:#333333;}</style><title>trophy</title><desc>Created with Sketch.</desc><path class="st0" d="M48 7v-7h-38v7h-10v9c0 3.9 3.1 7 7 7h3.7c1.7 5.9 6.4 10.6 12.3 12.3v16.7h-2.5c-3 0-5.5 2.5-5.5 5.5v1.5h-2v5h32v-5h-2v-1.5c0-3-2.5-5.5-5.5-5.5h-2.5v-16.7c5.9-1.7 10.6-6.4 12.3-12.3h3.7c3.9 0 7-3.1 7-7v-9h-10zm-38 12h-3c-1.7 0-3-1.3-3-3v-5h6v8zm27.5 37c.8 0 1.5.7 1.5 1.5v1.5h-20v-1.5c0-.8.7-1.5 1.5-1.5h17zm-6.5-20v16h-4v-16h4zm-1-4h-2c-7.7 0-14-6.3-14-14v-14h30v14c0 7.7-6.3 14-14 14zm24-16c0 1.6-1.3 3-3 3h-3v-8h6v5z"/></svg>

<?xml version="1.0" encoding="utf-8"?>
<!-- Generator: Adobe Illustrator 21.0.0, SVG Export Plug-In . SVG Version: 6.00 Build 0)  -->
<svg version="1.1" id="Layer_1" xmlns="http://www.w3.org/2000/svg" xmlns:xlink="http://www.w3.org/1999/xlink" x="0px" y="0px"
	 viewBox="0 0 58 64" style="enable-background:new 0 0 58 64;" xml:space="preserve">
<style type="text/css">
	.st0{fill:#333333;}
</style>
<title>trophy</title>
<desc>Created with Sketch.</desc>
<path class="st0" d="M48,7V0H10v7H0v9c0,3.9,3.1,7,7,7h3.7c1.7,5.9,6.4,10.6,12.3,12.3V52h-2.5c-3,0-5.5,2.5-5.5,5.5V59h-2v5h32v-5
	h-2v-1.5c0-3-2.5-5.5-5.5-5.5H35V35.3c5.9-1.7,10.6-6.4,12.3-12.3H51c3.9,0,7-3.1,7-7V7H48z M10,19H7c-1.7,0-3-1.3-3-3v-5h6v7V19z
	 M37.5,56c0.8,0,1.5,0.7,1.5,1.5V59H19v-1.5c0-0.8,0.7-1.5,1.5-1.5H23h12H37.5z M31,36v16h-4V36h1h2H31z M30,32h-2
	c-7.7,0-14-6.3-14-14V7V4h30v3v11C44,25.7,37.7,32,30,32z M54,16c0,1.6-1.3,3-3,3h-3v-1v-7h6V16z"/>
</svg>
